img/advantage/grey/icon-7.svg

<svg width="65" height="65" viewBox="0 0 65 65" fill="none" xmlns="http://www.w3.org/2000/svg">
<path d="M35.6104 10.0928H29.3897C25.3815 10.0928 25.373 16.3135 29.3897 16.3135H35.6104C39.6186 16.3135 39.6271 10.0928 35.6104 10.0928ZM35.6104 14.4092H29.3897C27.8379 14.4092 27.8354 11.9971 29.3897 11.9971H35.6104C37.1621 11.9971 37.1647 14.4092 35.6104 14.4092Z" fill="#9898A7"/>
<path d="M55.2881 51.1621H54.3119C53.9475 44.9161 49.3144 39.7982 43.2943 38.69C46.1515 36.1632 48.1189 32.653 48.6611 28.6945C50.6368 28.3583 52.146 26.6353 52.146 24.5654C52.146 22.549 50.714 20.8611 48.8135 20.4645V16.3135C48.8135 7.31821 41.4953 0 32.5 0C23.5047 0 16.1865 7.31821 16.1865 16.3135V20.4645C14.286 20.8611 12.854 22.549 12.854 24.5654C12.854 26.6343 14.3618 28.3566 16.3359 28.6939C16.5509 30.2781 16.9974 31.8132 17.6714 33.2787C18.1821 34.3896 19.913 33.5954 19.4015 32.483C18.5319 30.5919 18.0908 28.5688 18.0908 26.4696V23.8851C19.3144 25.145 21.0243 25.93 22.915 25.93H42.085C43.9758 25.93 45.6857 25.145 46.9092 23.8851V26.4697C46.9092 34.415 40.4452 40.8789 32.5 40.8789C28.5181 40.8789 24.6761 39.2077 21.9592 36.294C21.1255 35.3997 19.7314 36.6972 20.5664 37.5926C20.9264 37.9787 21.3045 38.3447 21.6976 38.6915C15.6814 39.8027 11.0523 44.9189 10.6881 51.1621H9.71191C9.18607 51.1621 8.75977 51.5884 8.75977 52.1143V55.542C8.75977 56.0678 9.18607 56.4941 9.71191 56.4941H10.6641V64.0479C10.6641 64.5737 11.0904 65 11.6162 65H37.959C39.1815 65 39.1833 63.0957 37.959 63.0957H33.5156V47.7344H39.4189C39.842 47.7344 40.2143 47.4552 40.3329 47.0492L42.258 40.4573C47.7241 41.1243 52.0263 45.613 52.404 51.1621H46.1475C45.6215 51.1621 45.1953 51.5884 45.1953 52.1143V55.542V63.0957H43.7988C42.5763 63.0957 42.5745 65 43.7988 65H53.3838C53.9098 65 54.3359 64.5737 54.3359 64.0479V56.4941H55.2881C55.8141 56.4941 56.2402 56.0678 56.2402 55.542V52.1143C56.2402 51.5884 55.8141 51.1621 55.2881 51.1621ZM50.2417 24.5654C50.2417 25.5234 49.6486 26.3442 48.8108 26.6834C48.8117 26.6122 48.8135 26.5412 48.8135 26.4697V22.4485C49.6498 22.7883 50.2417 23.6085 50.2417 24.5654ZM14.7583 24.5654C14.7583 23.6085 15.3502 22.7883 16.1865 22.4485V26.4697C16.1865 26.5411 16.1884 26.6122 16.1893 26.6834C15.3516 26.3443 14.7583 25.5234 14.7583 24.5654ZM42.085 24.0259H22.915C20.5808 24.0259 18.6285 22.3595 18.1851 20.1538H46.8149C46.3715 22.3595 44.4192 24.0259 42.085 24.0259ZM18.0908 18.2495V16.3135C18.0908 8.36824 24.5548 1.9043 32.5 1.9043C40.4452 1.9043 46.9092 8.36824 46.9092 16.3135V18.2495H18.0908ZM36.6792 42.2397L32.5317 45.5401L28.4056 42.2566C29.7336 42.6025 31.1091 42.7832 32.5 42.7832C33.9442 42.7832 35.3448 42.5937 36.6792 42.2397ZM29.8378 45.8301H26.3584L25.3049 42.223L29.8378 45.8301ZM22.8034 40.4502L24.7306 47.0491C24.8492 47.4552 25.2215 47.7342 25.6445 47.7342H31.5479V63.0956H19.8047V55.5419V52.1141C19.8047 51.5883 19.3784 51.162 18.8525 51.162H12.5962C12.9751 45.5922 17.3082 41.0909 22.8034 40.4502ZM10.6641 53.0664H17.9004V54.5898H11.6162H10.6641V53.0664ZM12.5684 63.0957V56.4941H17.9004V63.0957H12.5684ZM38.7051 45.8301H35.2257L39.7585 42.223L38.7051 45.8301ZM54.3359 54.5898H53.3838H47.0996V53.0664H54.3359V54.5898ZM52.4316 63.0957H47.0996V56.4941H52.4316V63.0957Z" fill="#9898A7"/>
<path d="M41.5771 53.1934H37.0068C36.4809 53.1934 36.0547 53.6197 36.0547 54.1455C36.0547 54.6713 36.4809 55.0977 37.0068 55.0977H41.5771C42.1031 55.0977 42.5293 54.6713 42.5293 54.1455C42.5293 53.6197 42.1031 53.1934 41.5771 53.1934Z" fill="#9898A7"/>
</svg>

<svg width="65" height="65" fill="none" xmlns="http://www.w3.org/2000/svg"><path d="M35.61 10.093h-6.22c-4.009 0-4.017 6.22 0 6.22h6.22c4.009 0 4.017-6.22 0-6.22zm0 4.316h-6.22c-1.552 0-1.555-2.412 0-2.412h6.22c1.552 0 1.555 2.412 0 2.412z" fill="#9898A7"/><path d="M55.288 51.162h-.976c-.364-6.246-4.998-11.364-11.018-12.472a16.3 16.3 0 0 0 5.367-9.995 4.196 4.196 0 0 0 3.485-4.13 4.196 4.196 0 0 0-3.333-4.1v-4.151C48.813 7.318 41.495 0 32.5 0S16.186 7.318 16.186 16.314v4.15a4.196 4.196 0 0 0-3.332 4.101 4.195 4.195 0 0 0 3.482 4.129 16.13 16.13 0 0 0 1.335 4.585c.511 1.11 2.242.316 1.73-.796a14.291 14.291 0 0 1-1.31-6.013v-2.585a6.708 6.708 0 0 0 4.824 2.045h19.17c1.89 0 3.6-.785 4.824-2.045v2.585c0 7.945-6.464 14.409-14.409 14.409a14.461 14.461 0 0 1-10.54-4.585c-.835-.894-2.229.403-1.394 1.299.36.386.739.752 1.132 1.098-6.017 1.112-10.646 6.228-11.01 12.471h-.976a.952.952 0 0 0-.952.952v3.428c0 .526.426.952.952.952h.952v7.554c0 .526.426.952.952.952H37.96c1.222 0 1.224-1.904 0-1.904h-4.443V47.734h5.903c.423 0 .795-.279.914-.685l1.925-6.592c5.466.667 9.768 5.156 10.146 10.705h-6.257a.952.952 0 0 0-.952.952v10.982H43.8c-1.223 0-1.224 1.904 0 1.904h9.585a.952.952 0 0 0 .952-.952v-7.554h.952a.952.952 0 0 0 .952-.952v-3.428a.952.952 0 0 0-.952-.952zm-5.046-26.597c0 .958-.593 1.78-1.431 2.118l.002-.213v-4.021a2.288 2.288 0 0 1 1.429 2.116zm-35.484 0c0-.957.592-1.777 1.428-2.117v4.022l.003.213a2.288 2.288 0 0 1-1.43-2.118zm27.327-.54h-19.17a4.833 4.833 0 0 1-4.73-3.871h28.63a4.833 4.833 0 0 1-4.73 3.872zM18.091 18.25v-1.936c0-7.946 6.464-14.41 14.409-14.41s14.41 6.464 14.41 14.41v1.936H18.09zm18.588 23.99-4.147 3.3-4.126-3.283a16.245 16.245 0 0 0 8.273-.017zm-6.841 3.59h-3.48l-1.053-3.607 4.533 3.607zm-7.035-5.38 1.928 6.6c.118.405.49.684.913.684h5.904v15.362H19.805V52.114a.952.952 0 0 0-.953-.952h-6.256c.38-5.57 4.712-10.071 10.207-10.712zM10.664 53.066H17.9v1.524h-7.236v-1.524zm1.904 10.03v-6.602H17.9v6.602h-5.332zM38.705 45.83h-3.48l4.533-3.607-1.053 3.607zm15.63 8.76H47.1v-1.524h7.236v1.524zm-1.903 8.506H47.1v-6.602h5.332v6.602z" fill="#9898A7"/><path d="M41.577 53.193h-4.57a.952.952 0 1 0 0 1.905h4.57a.952.952 0 1 0 0-1.905z" fill="#9898A7"/></svg>
